ix/frame-2_outline.svg

<svg viewBox="0 0 24 24" fill="none" xmlns="http://www.w3.org/2000/svg" height="1em" width="1em">
  <path d="M8.27 22.75H4.23c-2.01 0-2.98-.93-2.98-2.85V4.1c0-1.92.98-2.85 2.98-2.85h4.04c2.01 0 2.98.93 2.98 2.85v15.8c0 1.92-.98 2.85-2.98 2.85Zm-4.04-20c-1.27 0-1.48.34-1.48 1.35v15.8c0 1.01.21 1.35 1.48 1.35h4.04c1.27 0 1.48-.34 1.48-1.35V4.1c0-1.01-.21-1.35-1.48-1.35H4.23Zm15.54 8.5h-4.04c-2.01 0-2.98-.89-2.98-2.73V3.98c0-1.84.98-2.73 2.98-2.73h4.04c2.01 0 2.98.89 2.98 2.73v4.53c0 1.85-.98 2.74-2.98 2.74Zm-4.04-8.5c-1.34 0-1.48.38-1.48 1.23v4.53c0 .86.14 1.23 1.48 1.23h4.04c1.34 0 1.48-.38 1.48-1.23V3.98c0-.86-.14-1.23-1.48-1.23h-4.04Zm4.04 20h-4.04c-2.01 0-2.98-.98-2.98-2.98v-4.04c0-2.01.98-2.98 2.98-2.98h4.04c2.01 0 2.98.98 2.98 2.98v4.04c0 2-.98 2.98-2.98 2.98Zm-4.04-8.5c-1.18 0-1.48.3-1.48 1.48v4.04c0 1.18.3 1.48 1.48 1.48h4.04c1.18 0 1.48-.3 1.48-1.48v-4.04c0-1.18-.3-1.48-1.48-1.48h-4.04Z" fill="#292D32"/>
</svg>

<svg viewBox="0 0 24 24" fill="none" xmlns="http://www.w3.org/2000/svg" height="1em" width="1em">
  <path d="M8.27 22.75H4.23C2.22 22.75 1.25 21.82 1.25 19.9V4.1C1.25 2.18 2.23 1.25 4.23 1.25H8.27C10.28 1.25 11.25 2.18 11.25 4.1V19.9C11.25 21.82 10.27 22.75 8.27 22.75ZM4.23 2.75C2.96 2.75 2.75 3.09 2.75 4.1V19.9C2.75 20.91 2.96 21.25 4.23 21.25H8.27C9.54 21.25 9.75 20.91 9.75 19.9V4.1C9.75 3.09 9.54 2.75 8.27 2.75H4.23Z" fill="#292D32"/>
  <path d="M19.77 11.25H15.73C13.72 11.25 12.75 10.36 12.75 8.52V3.98C12.75 2.14 13.73 1.25 15.73 1.25H19.77C21.78 1.25 22.75 2.14 22.75 3.98V8.51C22.75 10.36 21.77 11.25 19.77 11.25ZM15.73 2.75C14.39 2.75 14.25 3.13 14.25 3.98V8.51C14.25 9.37 14.39 9.74 15.73 9.74H19.77C21.11 9.74 21.25 9.36 21.25 8.51V3.98C21.25 3.12 21.11 2.75 19.77 2.75H15.73Z" fill="#292D32"/>
  <path d="M19.77 22.75H15.73C13.72 22.75 12.75 21.77 12.75 19.77V15.73C12.75 13.72 13.73 12.75 15.73 12.75H19.77C21.78 12.75 22.75 13.73 22.75 15.73V19.77C22.75 21.77 21.77 22.75 19.77 22.75ZM15.73 14.25C14.55 14.25 14.25 14.55 14.25 15.73V19.77C14.25 20.95 14.55 21.25 15.73 21.25H19.77C20.95 21.25 21.25 20.95 21.25 19.77V15.73C21.25 14.55 20.95 14.25 19.77 14.25H15.73Z" fill="#292D32"/>
</svg>
